src/pos-icons/microsoft-bing.svg

<svg height="24" viewBox="0 0 24 24" width="24" xmlns="http://www.w3.org/2000/svg"><path d="m5 3v16l3.72 2 9.28-5.18v-4.09l-8.23-2.78 1.61 3.89 2.56 1.16-5.24 2.92v-12.65z"/></svg>

<?xml version="1.0" encoding="UTF-8"?><!DOCTYPE svg PUBLIC "-//W3C//DTD SVG 1.1//EN" "http://www.w3.org/Graphics/SVG/1.1/DTD/svg11.dtd"><svg xmlns="http://www.w3.org/2000/svg" xmlns:xlink="http://www.w3.org/1999/xlink" version="1.1" id="mdi-microsoft-bing" width="24" height="24" viewBox="0 0 24 24"><path d="M5,3V19L8.72,21L18,15.82V11.73H18L9.77,8.95L11.38,12.84L13.94,14L8.7,16.92V4.27L5,3" /></svg>
